;FLAVOR:Marlin
;TIME:177
;Filament used: 5380.52m
;Layer height: 50
;MINX:175
;MINY:125
;MINZ:0.3
;MAXX:825
;MAXY:775
;MAXZ:100.3
;TARGET_MACHINE.NAME:Unknown
;Generated with Cura_SteamEngine 5.10.0
M104 S0
M105
M109 S0
G28 ;Home
M82 ;absolute extrusion mode
G92 E0
G92 E0
;LAYER_COUNT:3
;LAYER:0
M107
;MESH:Test_X.STL
G0 F3600 X803.982 Y774.842 Z0.3
;TYPE:WALL-OUTER
G1 F2984.4 X803.186 Y774.899 E5.00276
G1 F2990.5 X802.389 Y774.943 E9.99647
G1 F2995 X801.593 Y774.975 E14.97281
G1 F2998 X800.796 Y774.994 E19.94781
G1 F2999.6 X800 Y775 E24.91272
G1 F3000 X786.028 Y775 E112.04596
G1 X772.056 Y775 E199.1792
G1 F2999.9 X758.084 Y775 E286.31418
G1 X744.112 Y774.999 E373.44916
G1 X730.14 Y774.999 E460.58414
G1 F2999.9 X716.168 Y774.999 E547.72087
G1 X702.196 Y774.999 E634.85759
G1 X688.224 Y774.999 E721.99432
G1 F2999.8 X674.252 Y774.999 E809.13278
G1 X660.28 Y774.999 E896.27125
G1 X646.308 Y774.998 E983.40972
G1 F2999.8 X632.336 Y774.998 E1070.54993
G1 X618.364 Y774.998 E1157.69014
G1 X604.392 Y774.998 E1244.83035
G1 F2999.7 X590.42 Y774.998 E1331.9723
G1 X576.448 Y774.998 E1419.11425
G1 X562.476 Y774.998 E1506.2562
G1 F2999.6 X548.504 Y774.997 E1593.3999
G1 X534.532 Y774.997 E1680.54359
G1 X520.56 Y774.997 E1767.68729
G1 F2999.6 X506.588 Y774.997 E1854.83272
G1 X492.616 Y774.997 E1941.97816
G1 X478.644 Y774.997 E2029.1236
G1 F2999.5 X464.672 Y774.997 E2116.27078
G1 X450.7 Y774.997 E2203.41796
G1 X436.728 Y774.996 E2290.56514
G1 F2999.5 X422.756 Y774.996 E2377.71406
G1 X408.784 Y774.996 E2464.86299
G1 X394.812 Y774.996 E2552.01191
G1 F2999.4 X380.84 Y774.996 E2639.16257
G1 X366.868 Y774.996 E2726.31324
G1 X352.896 Y774.996 E2813.4639
G1 F2999.3 X338.924 Y774.995 E2900.61631
G1 X324.952 Y774.995 E2987.76872
G1 X310.98 Y774.995 E3074.92113
G1 F2999.3 X297.008 Y774.995 E3162.07528
G1 X283.036 Y774.995 E3249.22943
G1 X269.064 Y774.995 E3336.38358
G1 F2999.2 X255.092 Y774.995 E3423.53947
G1 X241.12 Y774.994 E3510.69537
G1 X227.148 Y774.994 E3597.85126
G1 F2999.2 X213.176 Y774.994 E3685.0089
G1 X199.204 Y774.994 E3772.16653
G1 F2998 X198.406 Y774.975 E3777.14778
G1 F2995 X197.61 Y774.943 E3782.12411
G1 F2990.5 X196.813 Y774.899 E3787.11782
G1 F2984.4 X196.017 Y774.842 E3792.12058
G1 F2976.9 X195.22 Y774.772 E3797.14875
G1 F2967.9 X194.423 Y774.689 E3802.19991
G1 F2957.6 X193.627 Y774.594 E3807.2709
G1 F2945.8 X192.83 Y774.486 E3812.37893
G1 F2932.6 X192.034 Y774.366 E3817.51446
G1 F2918.1 X191.237 Y774.233 E3822.695
G1 F2902.3 X190.441 Y774.087 E3827.91176
G1 F2885.3 X189.644 Y773.928 E3833.18143
G1 F2867.1 X188.847 Y773.757 E3838.50052
G1 F2847.8 X188.051 Y773.573 E3843.86787
G1 F2827.4 X187.254 Y773.376 E3849.30038
G1 F2805.8 X186.458 Y773.167 E3854.78787
G1 F2783.4 X185.661 Y772.944 E3860.35072
G1 F2760 X184.865 Y772.71 E3865.97468
G1 F2735.7 X184.068 Y772.462 E3871.6829
G1 F2710.6 X183.271 Y772.202 E3877.46915
G1 F2684.8 X182.475 Y771.929 E3883.33317
G1 F2658.2 X181.678 Y771.644 E3889.29042
G1 F2630.9 X180.882 Y771.346 E3895.33452
G1 F2603.2 X180.085 Y771.034 E3901.48576
G1 F2574.8 X179.289 Y770.711 E3907.72754
G1 X178.965 Y769.914 E3913.97878
G1 F2603.2 X178.654 Y769.117 E3920.1273
G1 F2631 X178.356 Y768.321 E3926.17119
G1 F2658.2 X178.07 Y767.524 E3932.13081
G1 F2684.8 X177.798 Y766.728 E3937.99257
G1 F2710.7 X177.537 Y765.931 E3943.78086
G1 F2735.7 X177.29 Y765.134 E3949.48705
G1 F2760 X177.055 Y764.338 E3955.11293
G1 F2783.4 X176.833 Y763.541 E3960.67386
G1 F2805.9 X176.624 Y762.745 E3966.16125
G1 F2827.4 X176.427 Y761.948 E3971.59377
G1 F2847.8 X176.243 Y761.152 E3976.96101
G1 F2867.2 X176.072 Y760.355 E3982.2799
G1 F2885.4 X175.913 Y759.558 E3987.54947
G1 F2902.4 X175.767 Y758.762 E3992.76613
G1 F2918.1 X175.634 Y757.965 E3997.94657
G1 F2932.6 X175.513 Y757.169 E4003.08315
G1 F2945.7 X175.406 Y756.372 E4008.19043
G1 F2957.5 X175.31 Y755.576 E4013.26228
G1 F2967.9 X175.228 Y754.779 E4018.31289
G1 F2976.9 X175.158 Y753.982 E4023.34105
G1 F2984.4 X175.101 Y753.186 E4028.34382
G1 F2990.5 X175.057 Y752.389 E4033.33753
G1 F2995 X175.025 Y751.593 E4038.31386
G1 F2998 X175.006 Y750.796 E4043.28886
G1 F2999.6 X175 Y750 E4048.25378
G1 F3000 X175 Y736.028 E4135.38701
G1 X175 Y722.056 E4222.52025
G92 E0
G1 F2999.9 X175 Y708.084 E87.13498
G1 X175.001 Y694.112 E174.26996
G1 X175.001 Y680.14 E261.40494
G1 F2999.9 X175.001 Y666.168 E348.54167
G1 X175.001 Y652.196 E435.67839
G1 X175.001 Y638.224 E522.81512
G1 F2999.8 X175.001 Y624.252 E609.95358
G1 X175.001 Y610.28 E697.09205
G1 X175.002 Y596.308 E784.23052
G1 F2999.8 X175.002 Y582.336 E871.37073
G1 X175.002 Y568.364 E958.51094
G1 X175.002 Y554.392 E1045.65115
G1 F2999.7 X175.002 Y540.42 E1132.7931
G1 X175.002 Y526.448 E1219.93505
G1 X175.002 Y512.476 E1307.077
G1 F2999.6 X175.003 Y498.504 E1394.2207
G1 X175.003 Y484.532 E1481.36439
G1 X175.003 Y470.56 E1568.50809
G1 F2999.6 X175.003 Y456.588 E1655.65352
G1 X175.003 Y442.616 E1742.79896
G1 X175.003 Y428.644 E1829.9444
G1 F2999.5 X175.003 Y414.672 E1917.09158
G1 X175.003 Y400.7 E2004.23876
G1 X175.004 Y386.728 E2091.38594
G1 F2999.5 X175.004 Y372.756 E2178.53486
G1 X175.004 Y358.784 E2265.68379
G1 X175.004 Y344.812 E2352.83271
G1 F2999.4 X175.004 Y330.84 E2439.98337
G1 X175.004 Y316.868 E2527.13404
G1 X175.004 Y302.896 E2614.2847
G1 F2999.3 X175.005 Y288.924 E2701.43711
G1 X175.005 Y274.952 E2788.58952
G1 X175.005 Y260.98 E2875.74193
G1 F2999.3 X175.005 Y247.008 E2962.89608
G1 X175.005 Y233.036 E3050.05023
G1 X175.005 Y219.064 E3137.20438
G1 F2999.2 X175.005 Y205.092 E3224.36027
G1 X175.006 Y191.12 E3311.51617
G1 X175.006 Y177.148 E3398.67206
G1 F2999.2 X175.006 Y163.176 E3485.8297
G1 X175.006 Y149.204 E3572.98733
G1 F2998 X175.025 Y148.406 E3577.96858
G1 F2995 X175.057 Y147.61 E3582.94491
G1 F2990.5 X175.101 Y146.813 E3587.93862
G1 F2984.4 X175.158 Y146.017 E3592.94138
G1 F2976.9 X175.228 Y145.22 E3597.96955
G1 F2967.9 X175.311 Y144.423 E3603.02071
G1 F2957.6 X175.406 Y143.627 E3608.0917
G1 F2945.8 X175.514 Y142.83 E3613.19973
G1 F2932.6 X175.634 Y142.034 E3618.33526
G1 F2918.1 X175.767 Y141.237 E3623.5158
G1 F2902.3 X175.913 Y140.441 E3628.73256
G1 F2885.3 X176.072 Y139.644 E3634.00223
G1 F2867.1 X176.243 Y138.847 E3639.32132
G1 F2847.8 X176.427 Y138.051 E3644.68867
G1 F2827.4 X176.624 Y137.254 E3650.12118
G1 F2805.8 X176.833 Y136.458 E3655.60867
G1 F2783.4 X177.056 Y135.661 E3661.17152
G1 F2760 X177.29 Y134.865 E3666.79548
G1 F2735.7 X177.538 Y134.068 E3672.5037
G1 F2710.6 X177.798 Y133.271 E3678.28995
G1 F2684.8 X178.071 Y132.475 E3684.15397
G1 F2658.2 X178.356 Y131.678 E3690.11122
G1 F2630.9 X178.654 Y130.882 E3696.15532
G1 F2603.2 X178.966 Y130.085 E3702.30656
G1 F2574.8 X179.289 Y129.289 E3708.54834
G1 X180.086 Y128.965 E3714.79958
G1 F2603.2 X180.883 Y128.654 E3720.9481
G1 F2631 X181.679 Y128.356 E3726.99199
G1 F2658.2 X182.476 Y128.07 E3732.95161
G1 F2684.8 X183.272 Y127.798 E3738.81337
G1 F2710.7 X184.069 Y127.537 E3744.60166
G1 F2735.7 X184.866 Y127.29 E3750.30785
G1 F2760 X185.662 Y127.055 E3755.93373
G1 F2783.4 X186.459 Y126.833 E3761.49466
G1 F2805.9 X187.255 Y126.624 E3766.98205
G1 F2827.4 X188.052 Y126.427 E3772.41457
G1 F2847.8 X188.848 Y126.243 E3777.78181
G1 F2867.2 X189.645 Y126.072 E3783.1007
G1 F2885.4 X190.442 Y125.913 E3788.37027
G1 F2902.4 X191.238 Y125.767 E3793.58693
G1 F2918.1 X192.035 Y125.634 E3798.76737
G1 F2932.6 X192.831 Y125.513 E3803.90395
G1 F2945.7 X193.628 Y125.406 E3809.01123
G1 F2957.5 X194.424 Y125.31 E3814.08308
G1 F2967.9 X195.221 Y125.228 E3819.13369
G1 F2976.9 X196.018 Y125.158 E3824.16185
G1 F2984.4 X196.814 Y125.101 E3829.16462
G1 F2990.5 X197.611 Y125.057 E3834.15833
G1 F2995 X198.407 Y125.025 E3839.13466
G1 F2998 X199.204 Y125.006 E3844.10966
G1 F2999.6 X200 Y125 E3849.07458
G1 F3000 X213.972 Y125 E3936.20781
G1 X227.944 Y125 E4023.34105
G1 F2999.9 X241.916 Y125 E4110.47604
G1 X255.888 Y125.001 E4197.61102
G92 E0
G1 X269.86 Y125.001 E87.13498
G1 F2999.9 X283.832 Y125.001 E174.27171
G1 X297.804 Y125.001 E261.40843
G1 X311.776 Y125.001 E348.54515
G1 F2999.8 X325.748 Y125.001 E435.68362
G1 X339.72 Y125.001 E522.82209
G1 X353.692 Y125.002 E609.96055
G1 F2999.8 X367.664 Y125.002 E697.10076
G1 X381.636 Y125.002 E784.24097
G1 X395.608 Y125.002 E871.38118
G1 F2999.7 X409.58 Y125.002 E958.52313
G1 X423.552 Y125.002 E1045.66509
G1 X437.524 Y125.002 E1132.80704
G1 F2999.6 X451.496 Y125.003 E1219.95073
G1 X465.468 Y125.003 E1307.09443
G1 X479.44 Y125.003 E1394.23812
G1 F2999.6 X493.412 Y125.003 E1481.38356
G1 X507.384 Y125.003 E1568.529
G1 X521.356 Y125.003 E1655.67444
G1 F2999.5 X535.328 Y125.003 E1742.82162
G1 X549.3 Y125.003 E1829.9688
G1 X563.272 Y125.004 E1917.11598
G1 F2999.5 X577.244 Y125.004 E2004.2649
G1 X591.216 Y125.004 E2091.41382
G1 X605.188 Y125.004 E2178.56274
G1 F2999.4 X619.16 Y125.004 E2265.71341
G1 X633.132 Y125.004 E2352.86408
G1 X647.104 Y125.004 E2440.01474
G1 F2999.3 X661.076 Y125.005 E2527.16715
G1 X675.048 Y125.005 E2614.31956
G1 X689.02 Y125.005 E2701.47197
G1 F2999.3 X702.992 Y125.005 E2788.62612
G1 X716.964 Y125.005 E2875.78027
G1 X730.936 Y125.005 E2962.93442
G1 F2999.2 X744.908 Y125.005 E3050.09031
G1 X758.88 Y125.006 E3137.2462
G1 X772.852 Y125.006 E3224.4021
G1 F2999.2 X786.824 Y125.006 E3311.55973
G1 X800.796 Y125.006 E3398.71737
G1 F2998 X801.594 Y125.025 E3403.69861
G1 F2995 X802.39 Y125.057 E3408.67495
G1 F2990.5 X803.187 Y125.101 E3413.66866
G1 F2984.4 X803.983 Y125.158 E3418.67142
G1 F2976.9 X804.78 Y125.228 E3423.69958
G1 F2967.9 X805.577 Y125.311 E3428.75074
G1 F2957.6 X806.373 Y125.406 E3433.82174
G1 F2945.8 X807.17 Y125.514 E3438.92976
G1 F2932.6 X807.966 Y125.634 E3444.06529
G1 F2918.1 X808.763 Y125.767 E3449.24583
G1 F2902.3 X809.559 Y125.913 E3454.4626
G1 F2885.3 X810.356 Y126.072 E3459.73226
G1 F2867.1 X811.153 Y126.243 E3465.05136
G1 F2847.8 X811.949 Y126.427 E3470.4187
G1 F2827.4 X812.746 Y126.624 E3475.85122
G1 F2805.8 X813.542 Y126.833 E3481.33871
G1 F2783.4 X814.339 Y127.056 E3486.90156
G1 F2760 X815.135 Y127.29 E3492.52552
G1 F2735.7 X815.932 Y127.538 E3498.23374
G1 F2710.6 X816.729 Y127.798 E3504.01999
G1 F2684.8 X817.525 Y128.071 E3509.88401
G1 F2658.2 X818.322 Y128.356 E3515.84125
G1 F2630.9 X819.118 Y128.654 E3521.88535
G1 F2603.2 X819.915 Y128.966 E3528.0366
G1 F2574.9 X820.711 Y129.289 E3534.27827
G1 X821.034 Y130.085 E3540.51993
G1 F2603.3 X821.346 Y130.882 E3546.67096
G1 F2631.1 X821.644 Y131.678 E3552.71464
G1 F2658.3 X821.929 Y132.475 E3558.67168
G1 F2684.9 X822.202 Y133.271 E3564.53559
G1 F2710.7 X822.462 Y134.068 E3570.32163
G1 F2735.8 X822.71 Y134.865 E3576.02964
G1 F2760.1 X822.944 Y135.661 E3581.6535
G1 F2783.5 X823.167 Y136.458 E3587.21614
G1 F2806 X823.376 Y137.254 E3592.70332
G1 F2827.5 X823.573 Y138.051 E3598.13563
G1 F2847.9 X823.757 Y138.847 E3603.50268
G1 F2867.2 X823.928 Y139.644 E3608.82147
G1 F2885.4 X824.087 Y140.441 E3614.09093
G1 F2902.5 X824.233 Y141.237 E3619.30739
G1 F2918.2 X824.366 Y142.034 E3624.48763
G1 F2932.7 X824.486 Y142.83 E3629.62306
G1 F2945.8 X824.594 Y143.627 E3634.73108
G1 F2957.6 X824.689 Y144.423 E3639.80208
G1 F2968 X824.772 Y145.22 E3644.85314
G1 F2977 X824.842 Y146.017 E3649.8811
G1 F2984.5 X824.899 Y146.813 E3654.88367
G1 F2990.5 X824.943 Y147.61 E3659.87728
G1 F2995.1 X824.975 Y148.406 E3664.85351
G1 F2998.1 X824.994 Y149.203 E3669.82831
G1 F2999.6 X825 Y150 E3674.79936
G1 F3000 X825 Y166.238 E3776.064
G1 X825 Y182.476 E3877.32864
G1 F2999.9 X825 Y198.714 E3978.5953
G1 X824.999 Y214.952 E4079.86197
G1 X824.999 Y231.19 E4181.12863
G92 E0
G1 F2999.9 X824.999 Y247.428 E101.26869
G1 X824.999 Y263.666 E202.53738
G1 X824.999 Y279.904 E303.80607
G1 F2999.8 X824.999 Y296.142 E405.07678
G1 X824.998 Y312.38 E506.3475
G1 X824.998 Y328.618 E607.61821
G1 F2999.8 X824.998 Y344.856 E708.89095
G1 X824.998 Y361.094 E810.16369
G1 X824.998 Y377.332 E911.43643
G1 F2999.7 X824.998 Y393.57 E1012.7112
G1 X824.997 Y409.808 E1113.98596
G1 X824.997 Y426.046 E1215.26073
G1 F2999.6 X824.997 Y442.284 E1316.53752
G1 X824.997 Y458.522 E1417.81431
G1 X824.997 Y474.76 E1519.0911
G1 F2999.6 X824.997 Y490.998 E1620.36991
G1 X824.996 Y507.236 E1721.64873
G1 X824.996 Y523.474 E1822.92755
G1 F2999.5 X824.996 Y539.712 E1924.20839
G1 X824.996 Y555.95 E2025.48923
G1 X824.996 Y572.188 E2126.77007
G1 F2999.5 X824.996 Y588.426 E2228.05293
G1 X824.995 Y604.664 E2329.3358
G1 X824.995 Y620.902 E2430.61867
G1 F2999.4 X824.995 Y637.14 E2531.90356
G1 X824.995 Y653.378 E2633.18845
G1 X824.995 Y669.616 E2734.47334
G1 F2999.3 X824.995 Y685.854 E2835.76026
G1 X824.994 Y702.092 E2937.04718
G1 X824.994 Y718.33 E3038.33409
G1 F2999.3 X824.994 Y734.568 E3139.62304
G1 X824.994 Y750.806 E3240.91198
G1 F2998.1 X824.975 Y751.593 E3245.8244
G1 F2995.1 X824.943 Y752.389 E3250.80063
G1 F2990.5 X824.899 Y753.186 E3255.79424
G1 F2984.5 X824.842 Y753.982 E3260.79681
G1 F2977 X824.772 Y754.779 E3265.82477
G1 F2968.1 X824.69 Y755.576 E3270.87508
G1 F2957.6 X824.594 Y756.372 E3275.94673
G1 F2945.9 X824.487 Y757.169 E3281.05381
G1 F2932.7 X824.366 Y757.965 E3286.19009
G1 F2918.2 X824.233 Y758.762 E3291.37033
G1 F2902.5 X824.087 Y759.558 E3296.58679
G1 F2885.4 X823.928 Y760.355 E3301.85625
G1 F2867.2 X823.757 Y761.152 E3307.17504
G1 F2847.9 X823.573 Y761.948 E3312.54208
G1 F2827.5 X823.376 Y762.745 E3317.97439
G1 F2806 X823.167 Y763.541 E3323.46158
G1 F2783.6 X822.945 Y764.338 E3329.02231
G1 F2760.1 X822.71 Y765.134 E3334.64798
G1 F2735.9 X822.463 Y765.931 E3340.35386
G1 F2710.8 X822.202 Y766.728 E3346.14194
G1 F2684.9 X821.93 Y767.524 E3352.00349
G1 F2658.3 X821.644 Y768.321 E3357.96279
G1 F2631.1 X821.346 Y769.117 E3364.00647
G1 F2603.3 X821.035 Y769.914 E3370.15478
G1 F2574.9 X820.711 Y770.711 E3376.4058
G1 F2574.9 X819.914 Y771.035 E3382.65693
G1 F2603.2 X819.117 Y771.346 E3388.80546
G1 F2631 X818.321 Y771.644 E3394.84935
G1 F2658.2 X817.524 Y771.93 E3400.80897
G1 F2684.8 X816.728 Y772.202 E3406.67073
G1 F2710.7 X815.931 Y772.463 E3412.45902
G1 F2735.7 X815.134 Y772.71 E3418.16521
G1 F2760 X814.338 Y772.945 E3423.79109
G1 F2783.4 X813.541 Y773.167 E3429.35202
G1 F2805.9 X812.745 Y773.376 E3434.83941
G1 F2827.4 X811.948 Y773.573 E3440.27193
G1 F2847.8 X811.152 Y773.757 E3445.63917
G1 F2867.2 X810.355 Y773.928 E3450.95806
G1 F2885.4 X809.558 Y774.087 E3456.22763
G1 F2902.4 X808.762 Y774.233 E3461.44429
G1 F2918.1 X807.965 Y774.366 E3466.62473
G1 F2932.6 X807.169 Y774.487 E3471.76131
G1 F2945.7 X806.372 Y774.594 E3476.86859
G1 F2957.5 X805.576 Y774.69 E3481.94044
G1 F2967.9 X804.779 Y774.772 E3486.99105
G1 F2976.9 X803.982 Y774.842 E3492.01921
;TIME_ELAPSED:70.271772
;LAYER:1
M106 S255
;MESH:Test_X.STL
G0 F5400 X803.982 Y774.842 Z50.3
;TYPE:WALL-OUTER
G1 F2984.4 X803.186 Y774.899 E4325.81336
G92 E0
G1 F2990.5 X802.389 Y774.943 E832.28494
G1 F2995 X801.593 Y774.975 E1661.67358
G1 F2998 X800.796 Y774.994 E2490.84106
G1 F2999.6 X800 Y775 E3318.32626
G1 F3000 X786.028 Y775 E17840.53272
G92 E0
G1 X772.056 Y775 E14522.20646
G92 E0
G1 F2999.9 X758.084 Y775 E14522.49691
G92 E0
G1 X744.112 Y774.999 E14522.49695
G92 E0
G1 X730.14 Y774.999 E14522.49691
G92 E0
G1 F2999.9 X716.168 Y774.999 E14522.78735
G92 E0
G1 X702.196 Y774.999 E14522.78735
G92 E0
G1 X688.224 Y774.999 E14522.78735
G92 E0
G1 F2999.8 X674.252 Y774.999 E14523.0778
G92 E0
G1 X660.28 Y774.999 E14523.0778
G92 E0
G1 X646.308 Y774.998 E14523.07783
G92 E0
G1 F2999.8 X632.336 Y774.998 E14523.36824
G92 E0
G1 X618.364 Y774.998 E14523.36824
G92 E0
G1 X604.392 Y774.998 E14523.36824
G92 E0
G1 F2999.7 X590.42 Y774.998 E14523.65869
G92 E0
G1 X576.448 Y774.998 E14523.65869
G92 E0
G1 X562.476 Y774.998 E14523.65869
G92 E0
G1 F2999.6 X548.504 Y774.997 E14523.94917
G92 E0
G1 X534.532 Y774.997 E14523.94913
G92 E0
G1 X520.56 Y774.997 E14523.94913
G92 E0
G1 F2999.6 X506.588 Y774.997 E14524.23957
G92 E0
G1 X492.616 Y774.997 E14524.23957
G92 E0
G1 X478.644 Y774.997 E14524.23957
G92 E0
G1 F2999.5 X464.672 Y774.997 E14524.53002
G92 E0
G1 X450.7 Y774.997 E14524.53002
G92 E0
G1 X436.728 Y774.996 E14524.53005
G92 E0
G1 F2999.5 X422.756 Y774.996 E14524.82046
G92 E0
G1 X408.784 Y774.996 E14524.82046
G92 E0
G1 X394.812 Y774.996 E14524.82046
G92 E0
G1 F2999.4 X380.84 Y774.996 E14525.11091
G92 E0
